X: 24
T: Frieze Breeches, The
Z: tziguk
S: https://thesession.org/tunes/34#setting53542
R: jig
M: 6/8
L: 1/8
K: Dmaj
|:FED EFG|AdB cAG|~A3 BAG|FAF GFE|
FED EFG|AdB cAG|FAF GEA|1 DDD D3:|2 DDD D2A||
|:d2e fed|e2d cAG|~A3 BAG|FAF GED|
d2e fed|e2d cAG|FAF GEA|DED D3:|
|:DED c3|AdB cAG|ABc d3|ded cAF|
DED c3|AdB cAG|FAF GEA|1 DED D3:|2 DED DFA||
|:d2e fdd|add fdd|c2d eAA|fed eAA|
d2e fdd|add fdd|faf gec|1 decd2A:|2 decd2e||
|:fed ecA|ded cAG|~A3 BAG|FAF GED|
[1fed edc|ded cAG|~F3 GEA|DED D2g:|
[2~f3 ~g3|fed cAG|FAF GEA|DED D3||

%-------------------- TUNE SEPARATOR --------------------%

